X:20
T:Le Reel de Chateauguay
M:4/4
K:D
de |\
f2f2e2fe | d2fdA2d2 | cAFA G2B2 | AFDE F2A2 |\
f2f2e2fe | d2fdA2d2 | cAEF GABc |[1 d2f2d2 :|[2 d2f2d2 ||
|: z2 |\
D3FA2dc | BcdB A2d2 | cAEFG2B2 | AFDE FBAF |\
D3FA2dc | BcdB A2d2 | cAEF GABc | d2f2d4 :|| 
